X:1
T:WTC_Prelude_Guitar
T:Prelude I in C Major
T:Johann Sebastian Bach Transcribed by Jonathan Rodriguez
T:From the Well-Tempered Clavier: Book 1
C:J. S. Bach
L:1/8
Q:1/4=72
M:4/4
K:C
V:1 treble-8 nm="Classical Guitar" snm="Guit."
V:1
"^Adagio"!ped! !3!C/!2!E/!0!G/!1!c/ !0!e/G/c/e/ C/E/G/c/ e/G/c/e/ | %1
 !3!C/!0!D/!2!A/!4!d/ !1!f/A/d/f/ C/D/A/d/ f/A/d/f/ | %2
 !2!B,/!0!D/!0!G/!4!d/ !1!f/G/d/f/ B,/D/G/d/ f/G/d/f/ | %3
 !3!C/!2!E/!0!G/!1!c/ !0!e/G/c/e/ C/E/G/c/ e/G/c/e/ | %4
"^II" !2!C/!1!E/!1!A/!3!e/ !4!a/A/e/a/ C/E/A/e/ a/A/e/a/ | %5
 !2!C/!0!D/!4!^F/!1!A/ !3!d/F/A/d/ C/D/F/A/ d/F/A/d/ | %6
 !2!B,/!0!D/!0!G/!3!d/ !4!g/G/d/g/ B,/D/G/d/ g/G/d/g/ | %7
 (!2!B,/!4!C/)!3!E/!0!G/ !1!c/E/G/c/ (B,/C/)E/G/ c/E/G/c/ | %8
"^2/6 I" !4!A,/!3!C/!2!E/!0!G/ !1!c/E/G/c/ A,/C/E/G/ c/E/G/c/ | %9
"^1/2 II" !4!D/!3!^F/!1!A/!2!d/ !1!^f/A/d/f/ D/F/A/d/ f/A/d/f/ | %10
 !4!G,/!2!B,/!0!D/!0!G/ !0!B/D/G/B/ G,/B,/D/G/ B/D/G/B/ | %11
 !4!G,/!1!_B,/!3!E/!0!G/ !2!^c/E/G/c/ G,/B,/E/G/ c/E/G/c/ | %12
 !1!F,/!0!A,/!0!D/!2!A/ !4!d/D/A/d/ F,/A,/D/A/ d/D/A/d/ | %13
 (!1!F,/!3!_A,/)!4!D/!2!F/ !0!B/D/F/B/ (F,/A,/)D/F/ B/D/F/B/ | %14
 (!0!E,/!3!G,/)!4!C/!0!G/ !1!c/C/G/c/ (E,/G,/)C/G/ c/C/G/c/ | %15
"^1/2 II" !0!E,/!3!F/!2!A/!1!c/ !1!f/A/c/f/ E,/F/A/c/ f/A/c/f/ | %16
 (!0!D/!3!F/)!2!A/!4!d/ !1!f/A/d/f/ (D/F/)A/d/ f/A/d/f/ | %17
 !3!G,/!2!B,/!0!G/!0!B/ !1!f/G/B/f/ G,/B,/G/B/ f/G/B/f/ | %18
 !3!C/!2!E/!0!G/!1!c/ !0!e/G/c/e/ C/E/G/c/ e/G/c/e/ | %19
 !3!C/!2!E/!4!_B/!1!c/ !0!e/B/c/e/ C/E/B/c/ e/B/c/e/ | %20
 !2!F,/!4!F/!3!A/!1!c/ !0!e/A/c/e/ F,/F/A/c/ e/A/c/e/ | %21
"^II" !1!^F,/!2!C/!3!^F/!1!A/ !4!_e/F/A/e/ F,/C/F/A/ e/F/A/e/ | %22
"^III" !2!_A,/!3!D/!1!F/!4!c/ !1!d/F/c/d/ A,/D/F/c/ d/F/c/d/ | %23
"^III" !1!G,/!3!D/!1!F/!2!B/ !1!d/F/B/d/ G,/D/F/B/ d/F/B/d/ | %24
 !3!G,/!2!E/!0!G/!1!c/ !0!e/G/c/e/ G,/E/G/c/ e/G/c/e/ | %25
"^2/6 I" !4!G,/!0!D/!0!G/!1!c/ !1!f/G/c/f/ G,/D/G/c/ f/G/c/f/ | %26
 !4!G,/!0!D/!0!G/!0!B/ !1!f/G/B/f/ G,/D/G/B/ f/G/B/f/ | %27
"^4/6 I" !4!G,/!1!_E/!3!A/!1!c/ !2!_g/A/c/g/ G,/E/A/c/ g/A/c/g/ | %28
 !3!G,/!2!E/!0!G/!1!c/ !4!g/G/c/g/ G,/E/G/c/ g/G/c/g/ | %29
"^2/6 I" !3!G,/!0!D/!0!G/!1!c/ !1!f/G/c/f/ G,/D/G/c/ f/G/c/f/ | %30
 !3!G,/!0!D/!0!G/!0!B/ !1!f/G/B/f/ G,/D/G/B/ f/G/B/f/ | %31
 !3!C/!2!E/!4!_B/!1!c/ e/B/c/e/ C/E/B/c/ e/B/c/e/ | %32
"^2/6 I" !3!C/!1!c/!4!F/!2!A/ !1!c/!1!f/!1!c/!2!A/ !1!c/!2!A/!4!F/!2!A/ !4!F/!0!D/!4!F/!0!D/ | %33
 !3!C/!0!D/!0!G/!0!B/ !4!d/!1!f/!4!d/!0!B/"^Ritardando"[Q:1/4=66] !4!d/!0!B/!0!G/!0!B/[Q:1/4=48] !0!D/[Q:1/4=30]!3!F/!2!E/!0!D/ | %34
 !fermata![CEGc]8!ped-up! |] %35

